!!!!SEGMENT: pl-gd--ee-1638--002-038_marenzio-luca--motettorum-pro-festis-totius-anni-in-festo-pluri-mart-gaudent-in-coelis.krn
!!!cenid: 15xx:1041
!!!COM: Marenzio, Luca
!!!COM-rismID: pe30003955
!!!CDT: ~1553-1599/08/22
!!!CNT: Italian
!!!GTL: Motettorum pro festis totius anni
!!!OTL: In festo Pluri. Mart./Gaudent in coelis
!!!OMV: 038
!!!PDT: 1588
!!!AGN:
!!!SMS-siglum: PL-GD
!!!SMS-shelfmark: Ee 1638
!!!SMS-variant:
!!!SMS-altvar:
!!!SMS-shelfwork: 002-038 G
!!!NIFC-rismSourceID: 1001202747
!!!NIFC-rismChildID: 990039238
!!!NIFC-islandoraID: pl-gd:57883
!!!URL-pdf-islandora: https://repozytorium.nifc.pl/islandora/object/pl-gd%3A57883/datastream/PDF/view
!!!URL-scan: https://polish.musicsources.pl/pl/lokalizacje/galeria/klocki-introligatorskie/655 @EN{Scan on Polish Music Sources Website} @PL{Skany w portalu Dziedzictwo Muzyki Polskiej w otwartym dostępie}
!!!ONB-nifc: UWAGA: Cantus: s. 635 (lewa), Altus: s. 483 (lewa), Tenor: s. 331 (lewa), Bassus: s. 179 (lewa)
!!!AIN: 1 alto 1 bass 1 soprn 1 tenor
!!!key: g:dor
**kern	**text	**kern	**text	**kern	**text	**kern	**text
*part4	*part4	*part3	*part3	*part2	*part2	*part1	*part1
*staff4	*staff4	*staff3	*staff3	*staff2	*staff2	*staff1	*staff1
*I"BASSO	*	*I"TENORE	*	*I"ALTO	*	*I"CANTO	*
*I'B	*	*I'T	*	*I'A	*	*I'S	*
*Ibass	*	*Itenor	*	*Ialto	*	*Isoprn	*
*ICvox	*	*ICvox	*	*ICvox	*	*ICvox	*
*clefF4	*	*clefC4	*	*clefC3	*	*clefC1	*
*k[b-]	*	*k[b-]	*	*k[b-]	*	*k[b-]	*
*g:dor	*	*g:dor	*	*g:dor	*	*g:dor	*
*M2/1	*	*M2/1	*	*M2/1	*	*M2/1	*
*met(C|)	*	*met(C|)	*	*met(C|)	*	*met(C|)	*
=1-	=1-	=1-	=1-	=1-	=1-	=1-	=1-
!LO:TX:a:i:t=In festo Pluri. Mart.	!	!LO:TX:a:i:t=In festo Pluri. Mart.	!	!LO:TX:a:i:t=In festo Pluri. Mart.	!	!LO:TX:a:i:t=In festo Pluri. Mart.	!
0r	.	0r	.	2.G/	GAu-	2.g/	GAu-
.	.	.	.	4A/	.	8f/	.
.	.	.	.	.	.	8e/	.
.	.	.	.	4B-/	.	4d/	.
.	.	.	.	4c/	.	4e/	.
.	.	.	.	4d\	.	4f/	.
.	.	.	.	4e\	.	4g/	.
=2-	=2-	=2-	=2-	=2-	=2-	=2-	=2-
1r	.	1r	.	4f\	.	4a\	.
.	.	.	.	4d\	.	4b-\	.
.	.	.	.	4e\	.	4cc\	.
.	.	.	.	4f\	.	4a\	.
2.GG/	GAu-	2.G/	GAu-	1g	.	4b-\	.
.	.	.	.	.	.	4cc\	.
.	.	.	.	.	.	2.dd\	.
4AA/	.	8F/	.	.	.	.	.
.	.	8E/	.	.	.	.	.
=3-	=3-	=3-	=3-	=3-	=3-	=3-	=3-
4BB-/	.	4D/	.	2.f\	-dent	.	.
4C/	.	4E/	.	.	.	4cc\	.
4D/	.	4F/	.	.	.	2b-\	.
4E\	.	4G/	.	8e\	.	.	.
.	.	.	.	8d\	.	.	.
4F\	.	4A/	.	1c	.	1a	-dent
4G\	.	4B-\	.	.	.	.	.
4A\	.	4c\	.	.	.	.	.
4F\	.	4A/	.	.	.	.	.
=4-	=4-	=4-	=4-	=4-	=4-	=4-	=4-
1G	.	2.B-\	.	2r	.	2r	.
*	*	*	*	*	*ij	*	*ij
.	.	.	.	2.G/	GAu-	2.g/	gau-
.	.	4c\	.	.	.	.	.
1GG	-dent	1d	.	.	.	.	.
.	.	.	.	4A/	.	8f/	.
.	.	.	.	.	.	8e/	.
.	.	.	.	4B-/	.	4d/	.
.	.	.	.	4c/	.	4e/	.
=5-	=5-	=5-	=5-	=5-	=5-	=5-	=5-
1r	.	1D	-de(n)t	4d\	.	4f/	.
.	.	.	.	4e\	.	4g/	.
!	!	!	!	!	!	!LO:SIC:v:t=custos a	!
!	!	!	!	!	!	!LO:LB:g=original	!
.	.	.	.	4f\	.	4a\	.
.	.	.	.	4d\	.	4b-\	.
2r	.	2r	.	4e\	.	4cc\	.
.	.	.	.	4f\	.	4a\	.
*	*ij	*	*ij	*	*	*	*
2.GG/	GAu-	2.G/	GAu-	2g\	.	4b-\	.
.	.	.	.	.	.	4cc\	.
!	!	!	!	!LO:SIC:v:t=custos d	!	!	!
!	!	!	!	!LO:LB:g=original	!	!	!
=6-	=6-	=6-	=6-	=6-	=6-	=6-	=6-
.	.	.	.	0d	-dent	1dd	-dent
*	*	*	*	*	*Xij	*	*Xij
4AA/	.	8F/	.	.	.	.	.
.	.	8E/	.	.	.	.	.
4BB-/	.	4D/	.	.	.	.	.
4C/	.	4E/	.	.	.	.	.
!	!	!LO:SIC:v:t=custos F	!	!	!	!	!
!	!	!LO:LB:g=original	!	!	!	!	!
4D/	.	4F/	.	.	.	1a	.
4E\	.	4G/	.	.	.	.	.
!LO:SIC:v:t=custos F	!	!	!	!	!	!	!
!LO:LB:g=original	!	!	!	!	!	!	!
4F\	.	4A/	.	.	.	.	.
4D/	.	4B-\	.	.	.	.	.
=7-	=7-	=7-	=7-	=7-	=7-	=7-	=7-
4E\	.	4c\	.	2r	.	2r	.
4F\	.	4A/	.	.	.	.	.
2G\	.	4B-\	.	2g\	in	2d/	in
.	.	4c\	.	.	.	.	.
2D/	-dent	1d	.	4f\	cœ-	4dd\	cœ-
*	*Xij	*	*	*	*	*	*
.	.	.	.	4e\	.	4cc\	.
2GG/	in	.	.	4d\	.	4b-\	.
.	.	.	.	4c\	.	4a\	.
=8-	=8-	=8-	=8-	=8-	=8-	=8-	=8-
2.G\	cœ-	2d\	-dent	4B-/	.	0b-	.
*	*	*	*Xij	*	*	*	*
.	.	.	.	4c/	.	.	.
.	.	2B-\	in	2.d\	.	.	.
4A\	.	.	.	.	.	.	.
1B-	.	1f	cœ-	.	.	.	.
.	.	.	.	8c/	.	.	.
.	.	.	.	8B-/	.	.	.
.	.	.	.	2d\	.	.	.
=9-	=9-	=9-	=9-	=9-	=9-	=9-	=9-
2F\	-lis	2f\	-lis	2c/	-lis	2a\	-lis
1F	a-	1c	a-	1f	a-	1a	a-
2F\	-ni-	2d\	-ni-	2f\	-ni-	2a\	-ni-
=10-	=10-	=10-	=10-	=10-	=10-	=10-	=10-
2G\	-mæ	2B-\	-mæ	2d\	-mæ	2g/	-mæ
2D/	ſan-	2A/	ſan-	1d	ſan-	2f#X/	ſan-
0E-X	-cto-	0G	-cto-	.	.	0g	-cto-
.	.	.	.	4c/	.	.	.
.	.	.	.	4B-/	.	.	.
=11-	=11-	=11-	=11-	=11-	=11-	=11-	=11-
.	.	.	.	1c	-cto-	.	.
2D/	-ru(m)	2A/	-rum	0d	-rum	2f#X/	-ru(m)
2D/	qui	2A/	qui	.	.	2f#/	qui
=12-	=12-	=12-	=12-	=12-	=12-	=12-	=12-
1G	Chri-	1B-	Chri-	.	.	1g	Chri-
1F	-ſti	1c	-ſti	2r	.	2a\	-ſti
.	.	.	.	2c/	qui	2cc\	ve-
=13-	=13-	=13-	=13-	=13-	=13-	=13-	=13-
00r	.	0r	.	1d	Chri-	2b-\	-ſti-
.	.	.	.	.	.	2a\	-gi-
.	.	.	.	2e\	-ſti	2g/	-a
!	!	!	!	!	!	!LO:SIC:v:t=custos a	!
!	!	!	!	!	!	!LO:LB:g=original	!
.	.	.	.	2c/	ve-	2.a\	su(n)t
=14-	=14-	=14-	=14-	=14-	=14-	=14-	=14-
.	.	1r	.	2d\	-ſti-	.	.
.	.	.	.	.	.	4fny/	ſe-
.	.	.	.	2e\	-gi-	2g/	-cu-
!	!	!	!	!LO:SIC:v:t=custos f	!	!	!
!	!	!	!	!LO:LB:g=original	!	!	!
.	.	2r	.	2.f\	-a	2a\	-ti
.	.	2F/	qui	.	.	2a\	qui
.	.	.	.	4e\	.	.	.
!	!	!LO:SIC:v:t=custos G	!	!	!	!	!
!	!	!LO:LB:g=original	!	!	!	!	!
=15-	=15-	=15-	=15-	=15-	=15-	=15-	=15-
!	!	!	!	!	!	!LO:N:acc=#	!
1r	.	1G	Chri-	1d	.	1bn	Chri-
2r	.	2A/	-ſti	2r	.	2cc\	-ſti
*	*	*	*	*	*ij	*	*
2C/	qui	2c\	ve-	2e\	qui	2g/	ve-
=16-	=16-	=16-	=16-	=16-	=16-	=16-	=16-
1D	Chri-	2B-\	-ſti-	1f	Chri-	2.dd\	-ſti-
.	.	2A/	-gi-	.	.	.	.
.	.	.	.	.	.	4dd\	-gi-
!LO:SIC:v:t=custos E	!	!	!	!	!	!	!
!LO:LB:g=original	!	!	!	!	!	!	!
2Eny\	-ſti	2G/	-a	2g\	-ſti	1cc	-a
2C/	ve-	2.A/	ſunt	2e\	ve-	.	.
=17-	=17-	=17-	=17-	=17-	=17-	=17-	=17-
2D/	-ſti-	.	.	2f\	-ſti-	1r	.
.	.	4F/	ſe-	.	.	.	.
2E\	-gi-	2G/	-cu-	4e\	.	.	.
.	.	.	.	4d\	.	.	.
2F\	-a	1A	-ti	2.c/	.	2r	.
2.A\	su(n)t	.	.	.	.	2.cc\	ſunt
.	.	.	.	4c/	-gi-	.	.
=18-	=18-	=18-	=18-	=18-	=18-	=18-	=18-
.	.	1r	.	2c/	-a	.	.
*	*	*	*	*	*Xij	*	*
4F\	ſe-	.	.	.	.	4a\	ſe-
!	!	!	!	!	!	!LO:N:acc=#	!
2G\	-cu-	.	.	2.g\	su(n)t	2bn\	-cu-
2C/	-ti	2.c\	su(n)t	.	.	1cc	-ti
.	.	.	.	4e\	ſe-	.	.
*	*ij	*	*	*	*	*	*
2AA/	qui	.	.	2f#X\	-cu-	.	.
.	.	4A/	ſe-	.	.	.	.
=19-	=19-	=19-	=19-	=19-	=19-	=19-	=19-
!	!	!LO:N:acc=#	!	!	!	!	!
1GG	Chri-	1Bn	-cu-	4g\	-ti	2r	.
.	.	.	.	8fny\	.	.	.
.	.	.	.	8e\	.	.	.
.	.	.	.	4d\	.	2g/	qui
.	.	.	.	4e\	.	.	.
2FF/	-ſti	1c	-ti	1f	.	1a	Chri-
2F\	ve-	.	.	.	.	.	.
=20-	=20-	=20-	=20-	=20-	=20-	=20-	=20-
2G\	.	0r	.	2.e\	su(n)t	2b-y\	-ſti
2A\	.	.	.	.	.	2a\	ve-
.	.	.	.	4c/	ſe-	.	.
1B-	.	.	.	2.d\	-cu-	2f/	-ſti-
.	.	.	.	.	.	2g/	-gi-
.	.	.	.	4e\	.	.	.
!	!	!	!	!LO:SIC:v:t=custos f	!	!	!
!	!	!	!	!LO:LB:g=original	!	!	!
=21-	=21-	=21-	=21-	=21-	=21-	=21-	=21-
*	*	*	*ij	*	*	*	*
2.A\	-ſti-	2.c\	ſunt	4f\	.	1a	-a
.	.	.	.	4e\	.	.	.
.	.	.	.	2a\	.	.	.
4F\	-gi-	4A/	ſe-	.	.	.	.
!	!	!	!	!	!	!LO:SIC:v:t=custos c	!
!	!	!	!	!	!	!LO:LB:g=original	!
2G\	-a	2B-y\	-cu-	4g\	-ti	2r	.
*	*Xij	*	*	*	*	*	*
.	.	.	.	4f\	.	.	.
2A\	.	2c\	-ti	2e\	.	2.cc\	ſunt
=22-	=22-	=22-	=22-	=22-	=22-	=22-	=22-
2.F\	ſu(n)t	1r	.	2.a\	ſunt	.	.
.	.	.	.	.	.	4a\	ſe-
.	.	.	.	.	.	2dd\	-cu-
4D/	ſe-	.	.	4f\	ſe-	.	.
!LO:SIC:v:t=custos E	!	!	!	!	!	!	!
!LO:LB:g=original	!	!	!	!	!	!	!
2E\	-cu-	2.c\	ſunt	2g\	-cu-	2cc\	-ti
*	*	*	*	*	*	*	*ij
2F\	-ti	.	.	2c/	-ti	2.a\	ſunt
.	.	4A/	ſe-	.	.	.	.
=23-	=23-	=23-	=23-	=23-	=23-	=23-	=23-
2.D/	ſunt	1d	-cu-	2.f\	ſu(n)t	.	.
.	.	.	.	.	.	4f/	ſe-
.	.	.	.	.	.	2b-\	-cu-
4BB-/	ſe-	.	.	4d\	ſe-	.	.
!	!	!LO:SIC:v:t=custos c	!	!	!	!	!
!	!	!LO:LB:g=original	!	!	!	!	!
2C/	-cu-	2c\	-ti	2e\	-cu-	2a\	-ti
2D/	-ti	1F/	ſunt	2A/	-ti	2.f/	ſunt
=24-	=24-	=24-	=24-	=24-	=24-	=24-	=24-
2.BB-/	ſunt	.	.	2.d\	su(n)t	.	.
.	.	.	.	.	.	4d/	ſe-
.	.	2B-\	ſe-	.	.	2.g/	-cu-
4GG/	ſe-	.	.	4d\	ſe-	.	.
1D	-cu-	1A	-cu-	1d	-cu-	.	.
.	.	.	.	.	.	8f/	.
.	.	.	.	.	.	8e/	.
.	.	.	.	.	.	2f#X/	.
=25-	=25-	=25-	=25-	=25-	=25-	=25-	=25-
1GG	-ti	1G	-ti	0d	-ti	0.g	-ti
*	*	*	*Xij	*	*	*	*Xij
1G	(et)	2r	.	.	.	.	.
.	.	2G/	(et)	.	.	.	.
=26-	=26-	=26-	=26-	=26-	=26-	=26-	=26-
1G	qui-	1B-	qui-	2r	.	.	.
.	.	.	.	2d\	(et)	.	.
2G\	-a	2B-\	-a	1d	qui-	1r	.
2G\	pro	2B-\	pro	.	.	.	.
=27-	=27-	=27-	=27-	=27-	=27-	=27-	=27-
1F	e-	1A	e-	2d\	-a	0r	.
.	.	.	.	2d\	pro	.	.
2F\	-ius	2A/	-ius	1c	e-	.	.
2E\	a-	2G/	a-	.	.	.	.
=28-	=28-	=28-	=28-	=28-	=28-	=28-	=28-
1F	-mo-	1A	-mo-	2c/	-ius	1r	.
.	.	.	.	2A/	a-	.	.
1F	-re	1A	-re	1c	-mo-	2r	.
.	.	.	.	.	.	2.cc\	ſan-
!	!	!	!	!LO:SIC:v:t=custos c	!	!	!
!	!	!	!	!LO:LB:g=original	!	!	!
=29-	=29-	=29-	=29-	=29-	=29-	=29-	=29-
2r	.	2r	.	1c	-re	.	.
.	.	.	.	.	.	4cc\	-gui-
2.F\	ſan-	2.A/	ſan-	.	.	2a\	-ne(m)
.	.	.	.	1r	.	1dd	ſu-
4F\	-gui-	4A/	-gui-	.	.	.	.
2G\	-nem	2B-\	-ne(m)	.	.	.	.
!LO:SIC:v:t=custos a	!	!	!	!	!	!	!
!LO:LB:g=original	!	!	!	!	!	!	!
=30-	=30-	=30-	=30-	=30-	=30-	=30-	=30-
4A\	ſu-	4c\	ſu-	2r	.	1cc	-um
4G\	.	4B-\	.	.	.	.	.
4F\	.	4A\	.	2.c/	ſan-	.	.
4E\	.	4G/	.	.	.	.	.
!	!	!	!	!	!	!LO:SIC:v:t=custos f	!
!	!	!	!	!	!	!LO:LB:g=original	!
1F	.	2.A/	.	.	.	2r	.
.	.	.	.	4c/	-gui-	.	.
*	*	*	*	*	*	*	*ij
.	.	.	.	2A/	-ne(m)	2.fny/	ſan-
.	.	4F/	.	.	.	.	.
=31-	=31-	=31-	=31-	=31-	=31-	=31-	=31-
1BB-	-um	1B-	.	1d	ſu-	.	.
.	.	.	.	.	.	4f/	-gui-
.	.	.	.	.	.	2g/	-ne(m)
2r	.	0A	-um	1c	-um	4a\	ſu-
.	.	.	.	.	.	4g/	.
*	*ij	*	*	*	*	*	*
2.F\	ſan-	.	.	.	.	4f/	.
.	.	.	.	.	.	4e/	.
=32-	=32-	=32-	=32-	=32-	=32-	=32-	=32-
.	.	.	.	2r	.	2.f/	.
4F\	-gui-	.	.	.	.	.	.
*	*	*	*	*	*ij	*	*
2D/	-nem	.	.	2.d\	ſan-	.	.
.	.	.	.	.	.	8g\	.
.	.	.	.	.	.	8a\	.
!	!	!LO:SIC:v:t=custos d	!	!	!	!	!
!	!	!LO:LB:g=original	!	!	!	!	!
1G	ſu-	1r	.	.	.	1b-	.
.	.	.	.	4d\	-gui-	.	.
.	.	.	.	2e\	-nem	.	.
=33-	=33-	=33-	=33-	=33-	=33-	=33-	=33-
2F\	-um	2r	.	1f	ſu-	2a\	-um
*	*Xij	*	*	*	*	*	*Xij
2BB-/	fu-	2d\	fu-	.	.	2dd\	fu-
4B-\	-de-	1d	-de-	2f\	-um	4dd\	-de-
*	*	*	*	*	*Xij	*	*
4A\	.	.	.	.	.	4cc\	.
4G\	.	.	.	1g\	fu-	4b-\	.
4F\	.	.	.	.	.	4a\	.
=34-	=34-	=34-	=34-	=34-	=34-	=34-	=34-
4G\	.	1B-	-runt	.	.	4b-\	.
4F\	.	.	.	.	.	4a\	.
4E-X\	.	.	.	2.G/	-de-	4g/	.
4D\	.	.	.	.	.	4f/	.
4E-X\	.	1r	.	.	.	4g/	.
4D/	.	.	.	4A/	.	4f/	.
!LO:SIC:v:t=custos C	!	!	!	!	!	!	!
!LO:LB:g=original	!	!	!	!	!	!	!
4C/	.	.	.	2.B-/	.	4e-X/	.
4BB-/	.	.	.	.	.	4d/	.
=35-	=35-	=35-	=35-	=35-	=35-	=35-	=35-
1C	.	1r	.	.	.	1e-X	.
.	.	.	.	8A/	.	.	.
.	.	.	.	8G/	.	.	.
.	.	.	.	2A/	.	.	.
1BB-	-runt	2r	.	2B-/	-ru(n)t	1d	-runt
.	.	2d\	(et)	2f\	(et)	.	.
!	!	!	!	!	!	!LO:SIC:v:t=custos a	!
!	!	!	!	!	!	!LO:LB:g=original	!
=36-	=36-	=36-	=36-	=36-	=36-	=36-	=36-
00r	.	1d	qui-	1f	qui-	2r	.
.	.	.	.	.	.	2a\	(et)
.	.	2d\	-a	2f\	-a	1a	qui-
.	.	2d\	pro	2f\	pro	.	.
!	!	!	!	!LO:SIC:v:t=custos e	!	!	!
!	!	!	!	!LO:LB:g=original	!	!	!
=37-	=37-	=37-	=37-	=37-	=37-	=37-	=37-
.	.	1c	e-	1e	e-	2a\	-a
.	.	.	.	.	.	2a\	pro
.	.	2c\	-ius	2e\	-ius	1g	e-
!	!	!LO:N:acc=#	!	!	!	!	!
.	.	2Bn\	a-	2d\	a-	.	.
=38-	=38-	=38-	=38-	=38-	=38-	=38-	=38-
1r	.	1c	-mo-	1e	-mo-	2g/	-ius
.	.	.	.	.	.	2eny/	a-
2r	.	0c	-re	2e\	-re	1g	-mo-
2.C/	ſan-	.	.	2.e\	ſan-	.	.
=39-	=39-	=39-	=39-	=39-	=39-	=39-	=39-
.	.	.	.	.	.	2g/	-re
4C/	-gui-	.	.	4e\	-gui-	.	.
2AA/	-ne(m)	.	.	2c/	-ne(m)	2.a\	ſan-
1D	ſu-	1r	.	2f\	ſu-	.	.
.	.	.	.	.	.	4a\	-gui-
!	!	!	!	!	!	!LO:N:acc=#	!
.	.	.	.	2d\	-um	2bn\	-nem
=40-	=40-	=40-	=40-	=40-	=40-	=40-	=40-
1C	-um	2r	.	2r	.	1cc	ſu-
.	.	2.c\	ſan-	2.e\	ſan-	.	.
2r	.	.	.	.	.	2g/	-um
.	.	4c\	-gui-	4e\	-gui-	.	.
2.F\	ſan-	2A/	-nem	2c/	-nem	2.a\	ſan-
=41-	=41-	=41-	=41-	=41-	=41-	=41-	=41-
.	.	1d	ſu-	1f	ſu-	.	.
4F\	-gui-	.	.	.	.	4a\	-gui-
!	!	!	!	!	!	!LO:N:acc=#	!
2G\	-nem	.	.	.	.	2bn\	-nem
2.A\	ſu-	2c\	-um	2e\	-um	1cc	ſu-
.	.	2F/	fu-	2a\	fu-	.	.
4G\	.	.	.	.	.	.	.
=42-	=42-	=42-	=42-	=42-	=42-	=42-	=42-
2F\	.	4f\	-de-	4a\	-de-	2cc\	-um
.	.	4e\	.	4g\	.	.	.
!	!	!LO:SIC:v:t=custos d	!	!	!	!	!
!	!	!LO:LB:g=original	!	!	!	!	!
2BB-/	-um	4d\	.	4f\	.	2b-y\	fu-
.	.	4c\	.	4e\	.	.	.
1.BB-	fu-	4d\	.	4f\	.	4b-\	-de-
.	.	4c\	.	4e\	.	4a\	.
.	.	4B-y\	.	4d\	.	4g/	.
.	.	4A/	.	4c/	.	4f/	.
!	!	!	!	!	!	!LO:SIC:v:t=custos g	!
!	!	!	!	!	!	!LO:LB:g=original	!
=43-	=43-	=43-	=43-	=43-	=43-	=43-	=43-
.	.	4B-\	.	4d\	.	4g/	.
.	.	4A/	.	4c/	.	4f/	.
2D/	-de-	4G/	.	4B-/	.	2.f/	.
.	.	4F/	.	4A/	.	.	.
!	!	!	!	!LO:SIC:v:t=custos c	!	!	!
!	!	!	!	!LO:LB:g=original	!	!	!
1C	-ru(n)t	1G	.	1c	.	.	.
.	.	.	.	.	.	8e/	.
.	.	.	.	.	.	8d/	.
.	.	.	.	.	.	2e/	.
=44-	=44-	=44-	=44-	=44-	=44-	=44-	=44-
2r	.	1F	-runt	1c	-ru(n)t	1f	-ru(n)t
1F	I-	.	.	.	.	.	.
.	.	1.c	I-	2r	.	1.a	I-
!LO:SIC:v:t=custos F	!	!	!	!	!	!	!
!LO:LB:g=original	!	!	!	!	!	!	!
2F\	-de-	.	.	1f\	I-	.	.
=45-	=45-	=45-	=45-	=45-	=45-	=45-	=45-
0F	-o	.	.	.	.	.	.
.	.	2c\	-de-	2f\	-de-	2a\	-de-
.	.	1c	-o	1f	-o	1a	-o
=46-	=46-	=46-	=46-	=46-	=46-	=46-	=46-
0D	cu(m)	0d	cu(m)	0f	cu(m)	0a	cu(m)
=47-	=47-	=47-	=47-	=47-	=47-	=47-	=47-
0A	Chri-	0c	Chri-	1.e	Chri-	0a	Chri-
.	.	.	.	2f#X\	.	.	.
=48-	=48-	=48-	=48-	=48-	=48-	=48-	=48-
!	!	!LO:N:acc=#	!	!	!	!	!
2G\	-ſto	1Bn	-ſto	0g	-ſto	2d/	-ſto
2G\	ex-	.	.	.	.	2d/	ex-
4C/	-ul-	1c	ex-	.	.	4e/	-ul-
4D/	.	.	.	.	.	4f/	.
4Eny\	.	.	.	.	.	4g/	.
4C/	.	.	.	.	.	4e/	.
=49-	=49-	=49-	=49-	=49-	=49-	=49-	=49-
2F\	.	0c	-ul-	2r	.	2a\	.
2C/	-tant	.	.	2g\	ex-	2e/	-tant
2r	.	.	.	4e\	-ul-	2r	.
.	.	.	.	4fny\	.	.	.
2C/	ex-	.	.	4g\	.	2cc\	ex-
.	.	.	.	4e\	.	.	.
=50-	=50-	=50-	=50-	=50-	=50-	=50-	=50-
4F\	-ul-	1c	-tant	0f	.	4a\	-ul-
4G\	.	.	.	.	.	4b-\	.
4A\	.	.	.	.	.	4cc\	.
4F\	.	.	.	.	.	4a\	.
2B-\	.	2r	.	.	.	2dd\	.
!	!	!	!	!	!	!LO:SIC:v:t=custos a	!
!	!	!	!	!	!	!LO:LB:g=original	!
2F\	-tant	2c\	e-	.	.	2a\	-tant
!	!	!LO:SIC:v:t=custos A	!	!	!	!	!
!	!	!LO:LB:g=original	!	!	!	!	!
=51-	=51-	=51-	=51-	=51-	=51-	=51-	=51-
0F	ſi-	4A\	-xul-	1f	-tant	2r	.
.	.	4B-y\	.	.	.	.	.
*	*	*	*	*	*	*	*ij
.	.	4c\	.	.	.	2cc\	ex-
.	.	4A\	.	.	.	.	.
.	.	2d\	.	2r	.	4a\	-ul-
.	.	.	.	.	.	4b-\	.
*	*	*	*	*	*ij	*	*
.	.	2A/	-tant	2c/	ex-	4cc\	.
.	.	.	.	.	.	4a\	.
!LO:SIC:v:t=custos D	!	!	!	!	!	!	!
!LO:LB:g=original	!	!	!	!	!	!	!
=52-	=52-	=52-	=52-	=52-	=52-	=52-	=52-
0.D	-ne	2r	.	4F/	-ul-	2dd\	.
.	.	.	.	4G/	.	.	.
*	*	*	*ij	*	*	*	*
.	.	2F/	e-	4A/	.	2a\	-tant
.	.	.	.	4F/	.	.	.
.	.	4F/	-xul-	2B-/	.	2r	.
.	.	4G/	.	.	.	.	.
.	.	4A/	.	2F/	-tant	2a\	ex-
*	*	*	*	*	*Xij	*	*
.	.	4F/	.	.	.	.	.
=53-	=53-	=53-	=53-	=53-	=53-	=53-	=53-
.	.	2B-\	.	2r	.	4f/	-ul-
.	.	.	.	.	.	4g/	.
.	.	1F	-tant	1d	ſi-	4a\	.
*	*	*	*Xij	*	*	*	*
.	.	.	.	.	.	4f/	.
2.BB-/	fi-	.	.	.	.	2b-\	.
.	.	1B-\	ſi-	2d\	-ne	2f/	-tant
*	*	*	*	*	*	*	*Xij
4C/	.	.	.	.	.	.	.
!	!	!	!	!LO:SIC:v:t=custos d	!	!	!
!	!	!	!	!LO:LB:g=original	!	!	!
=54-	=54-	=54-	=54-	=54-	=54-	=54-	=54-
00D	.	.	.	2.d\	fi-	2.f/	ſi-
.	.	2A/	-ne	.	.	.	.
.	.	.	.	4c/	.	4e/	.
.	.	1.d	fi-	2B-/	.	4f/	.
.	.	.	.	.	.	4g/	.
.	.	.	.	2A/	-ne	2a\	.
=55-	=55-	=55-	=55-	=55-	=55-	=55-	=55-
.	.	.	.	1r	.	2f#X/	-ne
.	.	4c\	.	.	.	1g	fi-
.	.	4B-\	.	.	.	.	.
.	.	1A	.	1d	ex-	.	.
.	.	.	.	.	.	2f#X/	.
=56-	=56-	=56-	=56-	=56-	=56-	=56-	=56-
2GG/	-ne	1G	-ne	4B-/	-ul-	000ryy	-ne.
.	.	.	.	4c/	.	.	.
*	*ij	*	*	*	*	*	*
2G\	ex-	.	.	4d\	.	.	.
.	.	.	.	4B-/	.	.	.
*	*	*	*	*lig	*	*	*
4C/	-ul-	2r	.	1e-X	.	.	.
4D/	.	.	.	.	.	.	.
4E-X\	.	2c\	ex-	.	.	.	.
4C/	.	.	.	.	.	.	.
=57-	=57-	=57-	=57-	=57-	=57-	=57-	=57-
1G	.	4B-\	-ul-	1d	.	.	.
.	.	4c\	.	.	.	.	.
.	.	4d\	.	.	.	.	.
.	.	4B-\	.	.	.	.	.
!	!	!LO:SIC:v:t=custos e-	!	!	!	!	!
!	!	!LO:LB:g=original	!	!	!	!	!
*	*	*	*	*Xlig	*	*	*
1C	-tant	1e-X	.	2.c/	-tant	.	.
.	.	.	.	8B-/	.	.	.
.	.	.	.	8A/	.	.	.
=58-	=58-	=58-	=58-	=58-	=58-	=58-	=58-
2.E-X\	ſi-	2B-\	-tant	4G/	.	.	.
.	.	.	.	4A/	.	.	.
.	.	1e-X	ſi-	2B-/	.	.	.
4D/	.	.	.	.	.	.	.
2C/	.	.	.	2c/	ſi-	.	.
!LO:N:acc=#	!	!	!	!	!	!	!
2BBn/	-ne	2d\	-ne	2d\	-ne	.	.
=59-	=59-	=59-	=59-	=59-	=59-	=59-	=59-
0C	fi-	0c	fi-	0e-X	fi-	.	.
=60-	=60-	=60-	=60-	=60-	=60-	=60-	=60-
!	!	!LO:N:acc=#	!	!	!	!	!
0GGl	-ne	0Bnl	-ne.	0dl	-ne.	0gl	.
*	*Xij	*	*	*	*	*	*
=||	=||	=||	=||	=||	=||	=||	=||
*-	*-	*-	*-	*-	*-	*-	*-
!!!RDF**kern: l = terminal long
!!!system-decoration: [(s1,s2,s3,s4)]
!!!ENC: Mateusz Solarz
!!!END: 2022-07-05
!!!ENC: Urszula Świątek
!!!END: 2022-07-28
!!!YEC: Copyright 2022 Narodowy Instytut Fryderyka Chopina (https://polishscores.org)
!!!YEM: License CC-BY-4.0 (https://creativecommons.org/licenses/by/4.0)
